suite-common/icons/assets/icons/arrowUp.svg

<svg xmlns="http://www.w3.org/2000/svg" xml:space="preserve" fill="none" viewBox="0 0 9 7">
  <path fill="#00854D" fill-rule="evenodd" d="M4.357.038Q3.924.134 3.656.6L2.183 3.179C.722 5.74.748 5.69.726 5.928c-.04.452.263.896.704 1.031l.103.031h3.041c3.357 0 3.093.007 3.293-.093.176-.089.323-.227.421-.394.148-.252.168-.64.047-.9C8.276 5.477 5.445.524 5.374.424a1.04 1.04 0 0 0-.529-.371 1.3 1.3 0 0 0-.488-.015"/>
</svg>

<svg xmlns="http://www.w3.org/2000/svg" xml:space="preserve" fill="none" viewBox="0 0 9 7"><path d="M4.357 0.038 C 4.069 0.102,3.834 0.290,3.656 0.600 C 3.602 0.695,2.939 1.856,2.183 3.179 C 0.722 5.740,0.748 5.690,0.726 5.928 C 0.686 6.380,0.989 6.824,1.430 6.959 L 1.533 6.990 4.574 6.990 C 7.931 6.990,7.667 6.997,7.867 6.897 C 8.043 6.808,8.190 6.670,8.288 6.503 C 8.436 6.251,8.456 5.863,8.335 5.603 C 8.276 5.477,5.445 0.524,5.374 0.424 C 5.258 0.259,5.055 0.117,4.845 0.053 C 4.726 0.017,4.486 0.010,4.357 0.038 " fill="#00854D" stroke="none" fill-rule="evenodd"></path></svg>
